X: 305785
M: 2/4
L: 1/16
K: C
ag |\
d2d2d2d2 | d2ec a2g2 | d2d2d2d2 | d2ec a2g2 |\
g2 |\
c'2c'2 c'2ba | g^fgf g2g2 | a2a2 a2gf | e^ded e2c2 |\
fdef g2e2 | a2f2 bgab | c'2a2e2^f2 | [g6B6D6G,6] "^D.C."y|]


